Adwaita++/emblems/symbolic/emblem-documents-symbolic.svg

<svg height="16" width="16" xmlns="http://www.w3.org/2000/svg">
  <g fill="#474747">
    <path d="m12 3v2h1v9h-7v2h7s.459.014.947-.23c.489-.245 1.053-.937 1.053-1.77v-9s.014-.459-.23-.947c-.245-.489-.936-1.053-1.77-1.053z" fill-rule="evenodd"/>
    <path d="m4 14a2 2 0 0 0 2 2v-2zm-.5-11h4a.499.499 0 1 1 0 1h-4a.499.499 0 1 1 0-1zm0 4h4a.499.499 0 1 1 0 1h-4a.499.499 0 1 1 0-1zm0-2h3a.499.499 0 1 1 0 1h-3a.499.499 0 1 1 0-1zm0 4h3a.499.499 0 1 1 0 1h-3a.499.499 0 1 1 0-1z"/>
    <path d="m1.5 0c-.814 0-1.5.686-1.5 1.5v10c0 .814.686 1.5 1.5 1.5h8c.814 0 1.5-.686 1.5-1.5v-10c0-.814-.686-1.5-1.5-1.5zm.5 2h7v9h-7z"/>
  </g>
</svg>

<svg xmlns="http://www.w3.org/2000/svg" width="16" height="16">
    <g fill="#474747">
        <path d="M12 3v2h1v9H6v2h7s.459.014.947-.23C14.436 15.525 15 14.833 15 14V5s.014-.459-.23-.947C14.525 3.564 13.834 3 13 3z" style="line-height:normal;font-variant-ligatures:normal;font-variant-position:normal;font-variant-caps:normal;font-variant-numeric:normal;font-variant-alternates:normal;font-feature-settings:normal;text-indent:0;text-align:start;text-decoration-line:none;text-decoration-style:solid;text-decoration-color:#000;text-transform:none;text-orientation:mixed;shape-padding:0;isolation:auto;mix-blend-mode:normal" color="#000" font-weight="400" font-family="sans-serif" white-space="normal" overflow="visible" fill-rule="evenodd"/>
        <path d="M4 14a2 2 0 0 0 2 2v-2zM3.5 3h4a.499.499 0 1 1 0 1h-4a.499.499 0 1 1 0-1zM3.5 7h4a.499.499 0 1 1 0 1h-4a.499.499 0 1 1 0-1zM3.5 5h3a.499.499 0 1 1 0 1h-3a.499.499 0 1 1 0-1zM3.5 9h3a.499.499 0 1 1 0 1h-3a.499.499 0 1 1 0-1z"/>
        <path d="M1.5 0C.686 0 0 .686 0 1.5v10c0 .814.686 1.5 1.5 1.5h8c.814 0 1.5-.686 1.5-1.5v-10C11 .686 10.314 0 9.5 0zM2 2h7v9H2z" style="line-height:normal;font-variant-ligatures:normal;font-variant-position:normal;font-variant-caps:normal;font-variant-numeric:normal;font-variant-alternates:normal;font-feature-settings:normal;text-indent:0;text-align:start;text-decoration-line:none;text-decoration-style:solid;text-decoration-color:#000;text-transform:none;text-orientation:mixed;shape-padding:0;isolation:auto;mix-blend-mode:normal" color="#000" font-weight="400" font-family="sans-serif" white-space="normal" overflow="visible"/>
    </g>
</svg>
